X:1
T:Eton, 87.87.47
T:Eton, 87.87.47
T:Joseph Barnby, 1886
T:Public Domain Courtesy of the Cyber Hymnal™
C:Joseph Barnby, 1886
Z:Public Domain
Z:Courtesy of the Cyber Hymnal™
%%score ( 1 2 ) ( 3 4 )
L:1/8
Q:1/4=110
M:4/4
K:F
V:1 treble 
V:2 treble 
V:3 bass 
V:4 bass 
V:1
 [CF]2 [CE]2 [B,D]2 [B,C]2 | [A,A]2 z G [CF]2 [CE]2 | [B,B]2 AG [CA]2 [CG]2 | [CF]2 [=B,D]2 [CE]4 | %4
 [A,F]2 [^CE]2 [CE]2 D2 | [DA]2 [DG]2 [CF]2 [CE]2 | [EB]2 AG F2 [DA]2 | [EA]2 [^G=B]2 A4 | %8
 [^FA]2 [Ad]2 [Ac]2 [GB]2 | [Gc]2 [EB]2 A2 GF | [CF]4 [CE]4 | [CF]8 |] %12
V:2
 x8 | x2 D2 x4 | x2 C2 x4 | x8 | x8 | x8 | x2 E2 x4 | x8 | x8 | x4 FE D2 | x8 | x8 |] %12
V:3
 [F,A,]2 [C,G,]2 [D,F,]2 [E,G,]2 | [F,A,]2 [B,,B,]2 [C,A,]2 [C,G,]2 | %2
 [D,F,]2 [E,B,]2 [F,A,]2 [E,C]2 | [D,A,]2 G,2 [C,G,]4 | [D,F,]2 [A,,G,]2 [B,,G,]2 [B,,F,]2 | %5
 [=B,,F,]2 [B,,G,]2 [C,A,]2 [C,G,]2 | [^C,G,]2 A,B, [D,A,]2 [F,A,]2 | [E,C]2 [E,D]2 [A,C]4 | %8
 [D,D]2 [^F,D]2 [G,D]2 [G,D]2 | [E,C]2 [C,C]2 [F,C]2 B,A, | (G,2 A,2) [C,A,]4 | [F,A,]8 |] %12
V:4
 x8 | x8 | x8 | x8 | x8 | x8 | x2 ^C,2 x4 | x8 | x8 | x6 B,,2 | C,4 x4 | x8 |] %12

